X:605
M:C|
L:1/8
K:G Minor
|:Bcd=e fdcB|AFcF dFcF|Bcd=e fdcB|AfcA BGGA:|
|:Bfdf Bfdf|FcAc FcAc|Bfdf Bfdf|AFcA BGGA:|

